!!!OTL: Ure/re/
!!!ONR: No. 7
!! From Jaap Kunst "Music in New Guinea; Three Studies"
!! Verhandelingen van het Koninkluijk Instituut voor Taal-,
!! Land- end Volkenkunde, Deel 53
!! English translation and correction by Jeune Scott-Kemball
!! Publication Place: 'S-Gravenhage
!! Publisher: Martinus Nijhoff, 1967
!! From Chapter II: Songs of New Guinea, page 89
!!PLACE: Pacifica, New Guinea, Warope\n Coast
!!SINGER: sung by a woman
!!!PSX: F
!!!ENCODER: D. Huron
!! "Etc." has been expanded somewhat.
**kern
*clefG2
*k[]
*MX
{16f
16f
16f
16e
=1
2d
12e
12e
12e
=2
4d
2d}
{16f
16f
16f
16e
=3
2d
12e
12e
12e
=4
4d
2d}
{16f
16f
16f
16e
=5
2d
16d
16d
16d
16d
=6
4d
2B-}
{16f
16f
16f
16e
=7
2d
12e
12e
12e
=8
4d
2d}
{12f
12f
12f
12e
=9
2d
12e
12e
12e
=10
4d
2d}
{12f
12f
12f
12e
=11
2d
12e
12e
12e
=12
4.d
8B-
4d}
{16f
16f
16f
16e
=13
2d
12e
12e
12e
=14
4d
2d}
{16f
16f
16f
16e
=15
2d
16d
16d
16d
16d
=16
4d
2B-}
{16f
16f
16f
16e
=17
2d
16d
16d
16d
16d
=18
4.d
8B-
4d}
{16f
16f
16f
16e
=19
2d
12e
12e
12e
=20
4d
2d}
==
*-
